X: 321
M: C
L: 1/8
K: D
V: 1
d2d>d d2f>e | d2A2 d2e2 |\
f2f>f f2a>g | f2e2 f2g2 |\
a2a>a a2b>a |
g2g>g g2a>g |\
f2ed a2gf | e2e>e e2z :: A |\
d>ed>e f>gf>g | a>ba>b =c'2ba |\
bgeb afda | g>fe>d c2B>A |\
V: 2
z |\
z8 | z4 z2 z A | d2d>d d2f>e | d2A2 d2e2 |
f2f>f f2g>f | e2e>e e2f>e | d4 e2d2 | c2c>c c2z :: z |
z4 A>BA>B | c>dc>d e2d>c | d2z2 d>ed>e | f>gf>g a2gf |
g2b2 f2a2 | b2B2 A2d2 | d>ed>e d2Tc2 | d2d>d d2z :|

